X: 439
T: Bu Akşam Bütün Meyhanelerini...
C: Avni Anıl
O: Turkey
F: http://compmusic.upf.edu/node/140
N: kurdilihicazkar--sarki--curcuna--bu_aksam--avni_anil
N: makam= kurdilihicazkar
N: form= sarki
N: usul= curcuna = 10/8
M: 10/8
L: 1/16
K: C _B _e _A 
Q: 1/4=168
%%MIDI tuningsystem comma53
z4 b2a2 g2a2 gfg6  | z4 g2c'4b2 a2g4f2  | \
w:  Bu  ak *  şam   |  bü tün  mey *  ha  | 
f2g2 a2g2 f2e2 f2g6  | 
w:  ne *  le *  *  ri *  ni   | 
g2d2 d2d4e2 dcB2 c2d2  | e4 d2c2 B2A2 B2G6  | \
w:  *  *  do laş tım   |   | 
g6g4e4g6  | 
w:  İs tan bul_ un    | 
c'16-c'4  | bc'bc' d'4 c'bab abc'4ba  | \
w:  SAZ  |   | 
g3f e2d2 c2B2 A2G6  | 
w:   | 
z4 b2a2 g2a2 gfg6  | z4 g2c'4b2 a2g4f2  | \
w:  Bu  ak *  şam   |  bü tün  mey *  ha  | 
f2g2 a2g2 f2e2 f2g6  | 
w:  ne *  le *  *  ri *  ni   | 
g2d2 d2d4e2 dcB2 c2d2  | e4 d2c2 B2A2 B2G6  | \
w:  *  *  do laş tım   |   | 
g6g4e4g6  | 
w:  İs tan bul_ un    | 
c'16-c'4  | bc'bc' d'4 c'bab abc'4ba  | \
w:  SAZ  |   | 
gaga b2a2 bc'ba gfg6  | 
w:   | 
z4 f2g4g4g4{a}f2  | a3g f2e2 d2e2 f2g6  | \
w:  Se ni  a ra  |  dım   | 
g2d2 d2d4g3fe4f2  | 
w:  *  *  ka deh ler *  *  de  | 
d4 {e}d4 c2B2 c2d6  | z4 f2g4e3dc6  | \
w:  ki   |  du dak  iz *  le  | 
B2A2 G2A2 B2G8-G2  | c'6c'4c'4c'6  | 
w:  rin *  *  *  *  de    |  SAZ  | 
bc'bc' d'4 c'bab abc'4ba  | gaga b2a2 bc'ba gfg6  | 
w:   |   | 
z4 f2g4g4g4{a}f2  | a3g f2e2 d2e2 f2g6  | \
w:  Se ni  a ra  |  dım   | 
g2d2 d2d4g3fe4f2  | 
w:  *  *  ka deh ler *  *  de  | 
d4 {e}d4 c2B2 c2d6  | z4 f2g4e3dc6  | \
w:  ki   |  du dak  iz *  le  | 
B2A2 G2A2 B2G8-G2  | c'6c'4c'4c'6  | 
w:  rin *  *  *  *  de    |  SAZ  | 
bc'bc' d'4 c'bab abc'4ba  | g2a2 b2c'2 d'2{e'}d'c' c'bc'6  | 
w:   |   | 
z4 b2c'4c'2 {d'}d'c'c'4ba  | g4 b2c'14  | \
w:  Ca nım  do *  *  *  ya   |  *  do ya   | 
c'2b2 {d'}c'2b2 a2b2 a2{c'}b2 a2g2  | 
w:  sar *  *  *  *  *  hoş   | 
a2g2 a2b2 c'2c'2 b2a2 g2f2  | d'4 c'2c'2 b2b2 a2c'2 a2g2  | \
w:  ol *  *  *  *  mak   |  is *  ti *  yor  | 
g8-g2b4c'6  | 
w:  du    | 
z4 b2c'4c'2 {d'}d'c'c'4ba  | g4 b2c'14  | \
w:  Ca nım  do *  *  *  ya   |  *  do ya   | 
c'2b2 {d'}c'2b2 a2b2 a2{c'}b2 a2g2  | 
w:  sar *  *  *  *  *  hoş   | 
a2g2 a2b2 c'2c'2 b2a2 g2f2  | d'4 c'2c'2 b2b2 a2c'2 a2g2  | g16-g4  | 
w:  ol *  *  *  *  mak   |  is *  ti *  yor  |  du    | 
c'16-c'4  | bc'bc' d'4 c'bab abc'4ba  | \
w:  SAZ  |   | 
gaga b2a2 bc'ba gfg6  | 
w:   | 
z4 f2g4g4g4{a}f2  | a3g f2e2 d2e2 f2g6  | \
w:  Se ni  a ra  |  dım   | 
g2d2 d2d4g3fe4f2  | 
w:  *  *  ka deh ler *  *  de  | 
d4 {e}d4 c2B2 c2d6  | z4 f2g4e3dc6  | \
w:  ki   |  du dak  iz *  le  | 
B2A2 G2A2 B2G8-G2  | |


